X: 1872
T: Silly Old Man
C:Trad
B: australian traditional tunes wiki
M:6/8
L:1/8
R: Jig
Q: 3/8=100
K:F
V:1 
C/D/|F2F Ffd|cAFG2F|GAcd2g|FAF fed|cAF GAc|AGFD2:|
|:f|fcf f>af|e>dc dcd|f3/2g/a/b/g2f|f>ga gaf|e>dc def|cAFG2:|
V:2 
z|d3f2g|d3c2d|A3G3|D3G3|d3A3|B3B,2:|
|:z|f3d3|A3g3|f2da2d|f2dc2B|A3G3|D3A2:|
% abcbook-tune_id 6342d53a3279e2995ec324d9


% abcbook-boost 0
% abcbook-tablature 
% abcbook-transpose 
% abcbook-lastupdated 1665324389633
% abcbook-soundfonts 
% abcbook-repeats 1
% NFF Book 2020
% Bush Traditions recording played by Roland Clarke

